Quickit/src/img/icons/ln.svg

<svg width="18" height="18" viewBox="0 0 18 18" fill="none" xmlns="http://www.w3.org/2000/svg">
<path fill-rule="evenodd" clip-rule="evenodd" d="M3 2C2.44772 2 2 2.44772 2 3V15C2 15.5523 2.44772 16 3 16H15C15.5523 16 16 15.5523 16 15V3C16 2.44772 15.5523 2 15 2H3ZM0 3C0 1.34315 1.34315 0 3 0H15C16.6569 0 18 1.34315 18 3V15C18 16.6569 16.6569 18 15 18H3C1.34315 18 0 16.6569 0 15V3ZM5 4C5.55228 4 6 4.44772 6 5V5.01C6 5.56228 5.55228 6.01 5 6.01C4.44772 6.01 4 5.56228 4 5.01V5C4 4.44772 4.44772 4 5 4ZM5 7C5.55228 7 6 7.44772 6 8V13C6 13.5523 5.55228 14 5 14C4.44772 14 4 13.5523 4 13V8C4 7.44772 4.44772 7 5 7ZM8 13C8 13.5523 8.44772 14 9 14C9.55229 14 10 13.5523 10 13V10C10 9.73478 10.1054 9.48043 10.2929 9.29289C10.4804 9.10536 10.7348 9 11 9C11.2652 9 11.5196 9.10536 11.7071 9.29289C11.8946 9.48043 12 9.73478 12 10V13C12 13.5523 12.4477 14 13 14C13.5523 14 14 13.5523 14 13V10C14 9.20435 13.6839 8.44129 13.1213 7.87868C12.5587 7.31607 11.7957 7 11 7C10.5483 7 10.1071 7.10187 9.70711 7.29289C9.52614 7.11193 9.27614 7 9 7C8.44772 7 8 7.44772 8 8V13Z" fill="#1F2025"/>
</svg>

<svg xmlns="http://www.w3.org/2000/svg" width="18" height="18" fill="none" xmlns:v="https://vecta.io/nano"><path fill-rule="evenodd" d="M3 2a1 1 0 0 0-1 1v12a1 1 0 0 0 1 1h12a1 1 0 0 0 1-1V3a1 1 0 0 0-1-1H3zM0 3a3 3 0 0 1 3-3h12a3 3 0 0 1 3 3v12a3 3 0 0 1-3 3H3a3 3 0 0 1-3-3V3zm5 1a1 1 0 0 1 1 1v.01a1 1 0 1 1-2 0V5a1 1 0 0 1 1-1zm0 3a1 1 0 0 1 1 1v5a1 1 0 1 1-2 0V8a1 1 0 0 1 1-1zm3 6a1 1 0 1 0 2 0v-3a1 1 0 0 1 1-1 1 1 0 0 1 1 1v3a1 1 0 1 0 2 0v-3a3 3 0 0 0-3-3 3 3 0 0 0-1.293.293C9.526 7.112 9.276 7 9 7a1 1 0 0 0-1 1v5z" fill="#1f2025"/></svg>
